src/assets/images/meteor.svg

<?xml version="1.0" encoding="UTF-8" standalone="no"?>
<svg
   width="54.020901"
   height="48.573399"
   viewBox="0 0 54.020901 48.573399"
   fill="none"
   version="1.1"
   id="svg146"
   sodipodi:docname="meteor.svg"
   inkscape:version="1.2.2 (b0a84865, 2022-12-01)"
   xmlns:inkscape="http://www.inkscape.org/namespaces/inkscape"
   xmlns:sodipodi="http://sodipodi.sourceforge.net/DTD/sodipodi-0.dtd"
   xmlns="http://www.w3.org/2000/svg"
   xmlns:svg="http://www.w3.org/2000/svg">
  <defs
     id="defs150" />
  <sodipodi:namedview
     id="namedview148"
     pagecolor="#ffffff"
     bordercolor="#000000"
     borderopacity="0.25"
     inkscape:showpageshadow="2"
     inkscape:pageopacity="0.0"
     inkscape:pagecheckerboard="0"
     inkscape:deskcolor="#d1d1d1"
     showgrid="false"
     inkscape:zoom="2.0475168"
     inkscape:cx="140.65819"
     inkscape:cy="24.419824"
     inkscape:window-width="1352"
     inkscape:window-height="430"
     inkscape:window-x="0"
     inkscape:window-y="35"
     inkscape:window-maximized="0"
     inkscape:current-layer="svg146" />
  <path
     d="m 52.934,23.3916 c -1.2581,-1.2519 -3.313,-1.2585 -4.58,-0.02 l -5.046,5.0208 c -1.266,1.2596 -3.3375,1.2596 -4.6035,0 0,0 -0.0078,-0.0089 -0.0123,-0.0134 -0.2704,-0.249 -0.5151,-0.5425 -0.6324,-0.7904 -0.19,-0.3792 -0.3576,-1.0184 -0.3576,-1.422 0,-0.3791 0.1196,-0.9472 0.2615,-1.2319 0.0056,-0.01 0.0145,-0.0233 0.0212,-0.0355 0.1587,-0.3969 0.3967,-0.7672 0.7185,-1.0874 l 7.4695,-7.4322 c 0.2101,-0.2146 0.4257,-0.4336 0.6525,-0.6593 l 6.246,-6.21708 c 1.266,-1.25964 1.266,-3.32089 0,-4.58053 -1.2659,-1.25965 -3.3375,-1.25965 -4.6035,0 L 38.1011,15.2378 c -0.0201,0.02 -0.038,0.0422 -0.057,0.0634 -0.0078,0.0055 -0.0156,0.0089 -0.0234,0.0144 l -0.5285,0.5259 c -1.266,1.2596 -3.3376,1.2596 -4.6035,0 -1.266,-1.2597 -1.266,-3.3209 0,-4.5806 L 37.1458,7.02506 C 37.157,7.01283 37.1659,7.00172 37.1771,6.98949 L 38.4933,5.67981 C 38.814,5.36073 39.0531,4.98939 39.2118,4.59249 39.2196,4.58026 39.2274,4.56692 39.233,4.55691 39.376,4.2723 39.4945,3.70418 39.4945,3.32506 39.4945,2.92259 39.328,2.28221 39.1369,1.90309 39.0196,1.65516 38.7749,1.36165 38.5045,1.11261 38.5,1.10817 38.4967,1.10372 38.4922,1.09927 c -1.266,-1.259644 -3.3375,-1.259644 -4.6035,0 L 25.2739,9.6711 c -0.0134,0.01223 -0.0246,0.02224 -0.038,0.03447 l -0.6894,0.68593 c -1.266,1.2597 -3.3375,1.2597 -4.6035,0 -1.2659,-1.25961 -1.2659,-3.32085 0,-4.5805 l 0.2771,-0.28573 c 1.266,-1.25965 1.266,-3.32089 0,-4.580534 -1.2659,-1.259648 -3.3375,-1.259648 -4.6035,0 L 14.9127,1.64516 10.8746,5.62311 C 9.75387,6.72822 8.63875,7.85334 7.68564,8.83616 L 6.67779,9.83898 C 6.54594,9.97017 6.43197,10.1114 6.32806,10.257 5.73698,10.8874 5.30121,11.371 5.11349,11.6167 4.54253,12.3271 3.6844,13.6068 3.20841,14.4595 c -0.49946,0.8528 -1.16652,2.1791 -1.49949,2.9618 -0.33297,0.7816 -0.80896699,2.2269 -1.07154499,3.1986 -0.237996,0.9717 -0.524039,2.8428 -0.5955496,4.1459 -0.0949751,1.4219 -0.0234644,3.1741 0.1664856,4.3826 0.143021,1.114 0.499457,2.7005 0.762035,3.5532 C 1.23181,33.5544 1.8754,35.0942 2.39944,36.137 c 0.52404,1.0429 1.45256,2.5827 2.09504,3.4354 0.64248,0.8528 1.66709,2.0379 2.30957,2.6294 0.61901,0.5926 1.571,1.3975 2.09504,1.8 0.52404,0.4024 1.54751,1.0662 2.26151,1.492 0.714,0.4269 1.952,1.0184 2.7386,1.3508 0.7855,0.3313 2.4281,0.8527 3.6192,1.1607 1.7386,0.4503 2.8336,0.5681 5.0716,0.5681 2.2381,0 3.3331,-0.1189 5.0471,-0.5681 1.2146,-0.308 2.9051,-0.8527 3.7621,-1.2085 0.8571,-0.3558 2.2381,-1.0662 3.0951,-1.5876 0.857,-0.5214 2.0716,-1.3508 2.7386,-1.8478 0.6425,-0.5214 4.6427,-4.3593 8.8573,-8.5763 l 6.846,-6.8119 c 0,0 0.0067,-0.0111 0.0112,-0.0155 1.2526,-1.2608 1.2492,-3.3109 -0.0123,-4.5661 z"
     fill="#411edf"
     id="path132" />
</svg>

<svg xmlns:xlink="http://www.w3.org/1999/xlink" width="281" height="49" viewBox="0 0 281 49" fill="none" xmlns="http://www.w3.org/2000/svg"><path d="M52.934 23.3916C51.6759 22.1397 49.621 22.1331 48.354 23.3716L43.308 28.3924C42.042 29.652 39.9705 29.652 38.7045 28.3924C38.7045 28.3924 38.6967 28.3835 38.6922 28.379C38.4218 28.13 38.1771 27.8365 38.0598 27.5886C37.8698 27.2094 37.7022 26.5702 37.7022 26.1666C37.7022 25.7875 37.8218 25.2194 37.9637 24.9347C37.9693 24.9247 37.9782 24.9114 37.9849 24.8992C38.1436 24.5023 38.3816 24.132 38.7034 23.8118L46.1729 16.3796C46.383 16.165 46.5986 15.946 46.8254 15.7203L53.0714 9.50322C54.3374 8.24358 54.3374 6.18233 53.0714 4.92269C51.8055 3.66304 49.7339 3.66304 48.4679 4.92269L38.1011 15.2378C38.081 15.2578 38.0631 15.28 38.0441 15.3012C38.0363 15.3067 38.0285 15.3101 38.0207 15.3156L37.4922 15.8415C36.2262 17.1011 34.1546 17.1011 32.8887 15.8415C31.6227 14.5818 31.6227 12.5206 32.8887 11.2609L37.1458 7.02506C37.157 7.01283 37.1659 7.00172 37.1771 6.98949L38.4933 5.67981C38.814 5.36073 39.0531 4.98939 39.2118 4.59249C39.2196 4.58026 39.2274 4.56692 39.233 4.55691C39.376 4.2723 39.4945 3.70418 39.4945 3.32506C39.4945 2.92259 39.328 2.28221 39.1369 1.90309C39.0196 1.65516 38.7749 1.36165 38.5045 1.11261C38.5 1.10817 38.4967 1.10372 38.4922 1.09927C37.2262 -0.160374 35.1547 -0.160374 33.8887 1.09927L25.2739 9.6711C25.2605 9.68333 25.2493 9.69334 25.2359 9.70557L24.5465 10.3915C23.2805 11.6512 21.209 11.6512 19.943 10.3915C18.6771 9.13189 18.6771 7.07065 19.943 5.811L20.2201 5.52527C21.4861 4.26562 21.4861 2.20438 20.2201 0.944736C18.9542 -0.314912 16.8826 -0.314912 15.6166 0.944736L14.9127 1.64516L10.8746 5.62311C9.75387 6.72822 8.63875 7.85334 7.68564 8.83616L6.67779 9.83898C6.54594 9.97017 6.43197 10.1114 6.32806 10.257C5.73698 10.8874 5.30121 11.371 5.11349 11.6167C4.54253 12.3271 3.6844 13.6068 3.20841 14.4595C2.70895 15.3123 2.04189 16.6386 1.70892 17.4213C1.37595 18.2029 0.899953 19.6482 0.637375 20.6199C0.399379 21.5916 0.113336 23.4627 0.0418254 24.7658C-0.0531497 26.1877 0.018361 27.9399 0.208311 29.1484C0.351332 30.2624 0.707768 31.8489 0.970346 32.7016C1.23181 33.5544 1.8754 35.0942 2.39944 36.137C2.92348 37.1799 3.852 38.7197 4.49448 39.5724C5.13696 40.4252 6.16157 41.6103 6.80405 42.2018C7.42306 42.7944 8.37505 43.5993 8.89909 44.0018C9.42313 44.4042 10.4466 45.068 11.1606 45.4938C11.8746 45.9207 13.1126 46.5122 13.8992 46.8446C14.6847 47.1759 16.3273 47.6973 17.5184 48.0053C19.257 48.4556 20.352 48.5734 22.59 48.5734C24.8281 48.5734 25.9231 48.4545 27.6371 48.0053C28.8517 47.6973 30.5422 47.1526 31.3992 46.7968C32.2563 46.441 33.6373 45.7306 34.4943 45.2092C35.3513 44.6878 36.5659 43.8584 37.2329 43.3614C37.8754 42.84 41.8756 39.0021 46.0902 34.7851L52.9362 27.9732C52.9362 27.9732 52.9429 27.9621 52.9474 27.9577C54.2 26.6969 54.1966 24.6468 52.9351 23.3916H52.934Z" fill="#411EDF"></path><path d="M79.6461 48.4391C78.4123 48.4391 77.4649 48.0807 76.8039 47.3641C76.143 46.6475 75.8125 45.6622 75.8125 44.4081V4.03099C75.8125 2.73212 76.165 1.74676 76.87 1.07493C77.5751 0.358311 78.5445 0 79.7782 0C80.8798 0 81.7391 0.223946 82.356 0.671835C83.0169 1.07493 83.6118 1.79156 84.1406 2.8217L100.466 33.5244H98.3512L114.677 2.8217C115.206 1.79156 115.778 1.07493 116.395 0.671835C117.012 0.223946 117.871 0 118.973 0C120.207 0 121.154 0.358311 121.815 1.07493C122.476 1.74676 122.807 2.73212 122.807 4.03099V44.4081C122.807 45.6622 122.476 46.6475 121.815 47.3641C121.198 48.0807 120.251 48.4391 118.973 48.4391C117.739 48.4391 116.792 48.0807 116.131 47.3641C115.47 46.6475 115.14 45.6622 115.14 44.4081V13.3023H116.594L102.713 39.0334C102.273 39.7948 101.81 40.3547 101.325 40.713C100.841 41.0713 100.18 41.2505 99.3426 41.2505C98.5054 41.2505 97.8224 41.0713 97.2936 40.713C96.7649 40.3099 96.3022 39.75 95.9056 39.0334L81.8933 13.2351H83.4796V44.4081C83.4796 45.6622 83.1491 46.6475 82.4882 47.3641C81.8713 48.0807 80.9239 48.4391 79.6461 48.4391Z" fill="#FFFFFF"></path><path d="M146.729 48.5734C143.072 48.5734 139.922 47.8792 137.278 46.4907C134.634 45.1023 132.585 43.1316 131.131 40.5786C129.721 38.0257 129.016 35.0024 129.016 31.5089C129.016 28.105 129.699 25.1265 131.065 22.5735C132.475 20.0206 134.392 18.0275 136.815 16.5942C139.283 15.1162 142.081 14.3772 145.209 14.3772C147.501 14.3772 149.55 14.7579 151.356 15.5193C153.207 16.2807 154.771 17.378 156.049 18.8113C157.371 20.2445 158.362 21.9913 159.023 24.0516C159.728 26.0671 160.081 28.3513 160.081 30.9043C160.081 31.7104 159.794 32.3375 159.222 32.7854C158.693 33.1885 157.922 33.39 156.908 33.39H135.691V28.5528H154.264L153.207 29.5606C153.207 27.5003 152.898 25.7759 152.282 24.3875C151.709 22.999 150.849 21.9465 149.704 21.2299C148.602 20.4685 147.214 20.0878 145.54 20.0878C143.689 20.0878 142.103 20.5357 140.781 21.4314C139.503 22.2824 138.512 23.5141 137.807 25.1265C137.146 26.6941 136.815 28.5752 136.815 30.7699V31.2402C136.815 34.9128 137.652 37.6674 139.327 39.5037C141.045 41.2952 143.557 42.191 146.862 42.191C148.007 42.191 149.285 42.0567 150.695 41.7879C152.149 41.4744 153.515 40.9593 154.793 40.2427C155.718 39.7052 156.534 39.4813 157.239 39.5709C157.944 39.6157 158.495 39.862 158.891 40.3099C159.332 40.7578 159.596 41.3176 159.684 41.9895C159.772 42.6165 159.64 43.266 159.288 43.9378C158.979 44.6096 158.428 45.1919 157.635 45.6845C156.093 46.6699 154.308 47.4089 152.282 47.9016C150.299 48.3495 148.448 48.5734 146.729 48.5734Z" fill="#FFFFFF"></path><path d="M179.831 48.5734C176.967 48.5734 174.566 48.0807 172.627 47.0954C170.732 46.11 169.322 44.6768 168.397 42.7957C167.471 40.8698 167.009 38.4959 167.009 35.6743V21.3642H163.572C162.514 21.3642 161.699 21.0955 161.126 20.558C160.553 19.9758 160.267 19.192 160.267 18.2066C160.267 17.1765 160.553 16.3927 161.126 15.8552C161.699 15.3178 162.514 15.049 163.572 15.049H167.009V8.93536C167.009 7.54691 167.361 6.49438 168.066 5.77775C168.815 5.06113 169.851 4.70282 171.173 4.70282C172.495 4.70282 173.508 5.06113 174.213 5.77775C174.918 6.49438 175.271 7.54691 175.271 8.93536V15.049H182.277C183.334 15.049 184.15 15.3178 184.722 15.8552C185.295 16.3927 185.582 17.1765 185.582 18.2066C185.582 19.192 185.295 19.9758 184.722 20.558C184.15 21.0955 183.334 21.3642 182.277 21.3642H175.271V35.204C175.271 37.3538 175.733 38.9662 176.659 40.0412C177.584 41.1161 179.082 41.6536 181.153 41.6536C181.902 41.6536 182.563 41.5864 183.136 41.452C183.709 41.3176 184.216 41.2281 184.656 41.1833C185.185 41.1385 185.626 41.3176 185.978 41.7207C186.331 42.0791 186.507 42.8405 186.507 44.005C186.507 44.9007 186.353 45.7069 186.044 46.4236C185.78 47.0954 185.273 47.5657 184.524 47.8344C183.951 48.0136 183.202 48.1703 182.277 48.3047C181.352 48.4838 180.536 48.5734 179.831 48.5734Z" fill="#FFFFFF"></path><path d="M204.53 48.5734C200.873 48.5734 197.722 47.8792 195.079 46.4907C192.435 45.1023 190.386 43.1316 188.932 40.5786C187.522 38.0257 186.817 35.0024 186.817 31.5089C186.817 28.105 187.5 25.1265 188.866 22.5735C190.276 20.0206 192.192 18.0275 194.616 16.5942C197.084 15.1162 199.882 14.3772 203.01 14.3772C205.301 14.3772 207.35 14.7579 209.157 15.5193C211.008 16.2807 212.572 17.378 213.85 18.8113C215.172 20.2445 216.163 21.9913 216.824 24.0516C217.529 26.0671 217.882 28.3513 217.882 30.9043C217.882 31.7104 217.595 32.3375 217.022 32.7854C216.494 33.1885 215.723 33.39 214.709 33.39H193.492V28.5528H212.065L211.008 29.5606C211.008 27.5003 210.699 25.7759 210.082 24.3875C209.51 22.999 208.65 21.9465 207.505 21.2299C206.403 20.4685 205.015 20.0878 203.341 20.0878C201.49 20.0878 199.904 20.5357 198.582 21.4314C197.304 22.2824 196.312 23.5141 195.607 25.1265C194.946 26.6941 194.616 28.5752 194.616 30.7699V31.2402C194.616 34.9128 195.453 37.6674 197.128 39.5037C198.846 41.2952 201.358 42.191 204.663 42.191C205.808 42.191 207.086 42.0567 208.496 41.7879C209.95 41.4744 211.316 40.9593 212.594 40.2427C213.519 39.7052 214.335 39.4813 215.04 39.5709C215.745 39.6157 216.295 39.862 216.692 40.3099C217.133 40.7578 217.397 41.3176 217.485 41.9895C217.573 42.6165 217.441 43.266 217.089 43.9378C216.78 44.6096 216.229 45.1919 215.436 45.6845C213.894 46.6699 212.109 47.4089 210.082 47.9016C208.099 48.3495 206.249 48.5734 204.53 48.5734Z" fill="#FFFFFF"></path><path d="M237.695 48.5734C234.346 48.5734 231.438 47.8792 228.971 46.4907C226.503 45.1023 224.586 43.1316 223.22 40.5786C221.854 37.9809 221.171 34.9352 221.171 31.4417C221.171 28.7992 221.546 26.4478 222.295 24.3875C223.088 22.2824 224.212 20.4909 225.666 19.0128C227.12 17.49 228.86 16.3479 230.887 15.5865C232.914 14.7803 235.184 14.3772 237.695 14.3772C241.044 14.3772 243.952 15.0714 246.42 16.4599C248.887 17.8483 250.804 19.819 252.17 22.372C253.536 24.925 254.219 27.9482 254.219 31.4417C254.219 34.0843 253.823 36.4581 253.029 38.5631C252.28 40.6682 251.179 42.4821 249.725 44.005C248.271 45.483 246.53 46.6251 244.503 47.4313C242.476 48.1927 240.207 48.5734 237.695 48.5734ZM237.695 42.191C239.326 42.191 240.758 41.7879 241.991 40.9817C243.225 40.1755 244.173 38.9886 244.834 37.421C245.539 35.8086 245.891 33.8155 245.891 31.4417C245.891 27.8586 245.142 25.1937 243.644 23.4469C242.146 21.6554 240.163 20.7596 237.695 20.7596C236.065 20.7596 234.633 21.1627 233.399 21.9689C232.165 22.7303 231.196 23.9172 230.491 25.5296C229.83 27.0972 229.499 29.0679 229.499 31.4417C229.499 34.98 230.248 37.6674 231.747 39.5037C233.245 41.2952 235.228 42.191 237.695 42.191Z" fill="#FFFFFF"></path><path d="M263.8 48.4391C262.434 48.4391 261.376 48.0807 260.627 47.3641C259.922 46.6027 259.57 45.5278 259.57 44.1393V18.7441C259.57 17.3557 259.922 16.3031 260.627 15.5865C261.332 14.8699 262.324 14.5116 263.601 14.5116C264.879 14.5116 265.871 14.8699 266.576 15.5865C267.281 16.3031 267.633 17.3557 267.633 18.7441V22.9766H266.972C267.589 20.2893 268.801 18.2514 270.608 16.863C272.414 15.4745 274.816 14.6459 277.812 14.3772C278.737 14.2876 279.464 14.534 279.993 15.1162C280.566 15.6537 280.897 16.5047 280.985 17.6692C281.073 18.7889 280.808 19.7071 280.191 20.4237C279.619 21.0955 278.737 21.4986 277.548 21.633L276.094 21.7673C273.406 22.0361 271.379 22.8871 270.013 24.3203C268.647 25.7088 267.964 27.6795 267.964 30.2324V44.1393C267.964 45.5278 267.611 46.6027 266.906 47.3641C266.201 48.0807 265.166 48.4391 263.8 48.4391Z" fill="#FFFFFF"></path></svg>
